X: 272
T:Branle de Champagne
M:2/4
L:1/4
Q:210
C:Claude Gervaise
R:branle double
O:France
P:AAB
H:XV eme siecle
Z:S. Piron
K:C
c2|c2|B/2c/2 d|B2|c/2d/2e|dc|BA|1GE:|2G2|
|:G/2A/2B|AG|A2|A2|G/2A/2B|AG|A2|A2:|
W:
W: From "Falaleiro" http://home.t-online.de/home/pheld/homepage.htm
